outputs/icons/navigation/dashboard_round.svg

<svg xmlns="http://www.w3.org/2000/svg" width="1200" height="1200" fill="none"><g clip-path="url(#a)"><path fill="#000" d="M200 650h300c27.5 0 50-22.5 50-50V200c0-27.5-22.5-50-50-50H200c-27.5 0-50 22.5-50 50v400c0 27.5 22.5 50 50 50m0 400h300c27.5 0 50-22.5 50-50V800c0-27.5-22.5-50-50-50H200c-27.5 0-50 22.5-50 50v200c0 27.5 22.5 50 50 50m500 0h300c27.5 0 50-22.5 50-50V600c0-27.5-22.5-50-50-50H700c-27.5 0-50 22.5-50 50v400c0 27.5 22.5 50 50 50m-50-850v200c0 27.5 22.5 50 50 50h300c27.5 0 50-22.5 50-50V200c0-27.5-22.5-50-50-50H700c-27.5 0-50 22.5-50 50"/></g><defs><clipPath id="a"><path fill="#fff" d="M0 0h1200v1200H0z"/></clipPath></defs></svg>

<svg width="1200" height="1200" viewBox="0 0 1200 1200" fill="none" xmlns="http://www.w3.org/2000/svg"><g clip-path="url(#clip0_645_1662)"><path d="M200 650H500C527.5 650 550 627.5 550 600V200C550 172.5 527.5 150 500 150H200C172.5 150 150 172.5 150 200V600C150 627.5 172.5 650 200 650ZM200 1050H500C527.5 1050 550 1027.5 550 1000V800C550 772.5 527.5 750 500 750H200C172.5 750 150 772.5 150 800V1000C150 1027.5 172.5 1050 200 1050ZM700 1050H1000C1027.5 1050 1050 1027.5 1050 1000V600C1050 572.5 1027.5 550 1000 550H700C672.5 550 650 572.5 650 600V1000C650 1027.5 672.5 1050 700 1050ZM650 200V400C650 427.5 672.5 450 700 450H1000C1027.5 450 1050 427.5 1050 400V200C1050 172.5 1027.5 150 1000 150H700C672.5 150 650 172.5 650 200Z" fill="#1D1E23"/></g><defs><clipPath id="clip0_645_1662"><path width="24" fill="white" d="M0 0H1200V1200H0V0z"/></clipPath></defs></svg>
